X: 15578
T: Glountane Highland, The
R: reel
M: 4/4
K: Dmajor
e3e2ABd|edfd edBd|e3e2ABd|1 edfe d4:|2 edfe d2b2||
|:a2fd effg|afe2 d2b2|a2fd effg|1 afef d2b2:|2 afe2 d4||

